symbols/web/grading/materialsymbolsoutlined/grading_gradN25fill1_48px.svg

<svg xmlns="http://www.w3.org/2000/svg" height="48" width="48"><path d="M6.2 41.4v-2.85h17.7v2.85Zm0-8.05v-2.9h17.7v2.9Zm0-8.25v-2.6h35.65v2.6Zm0-7.95V14.3h35.65v2.85Zm0-8.05V6.2h35.65v2.9Zm26.75 32.65-5.15-5.2 2.1-2 3.1 3.1 6.85-6.9 2.05 2.05Z"/></svg>

<svg xmlns="http://www.w3.org/2000/svg" height="48" width="48"><path d="M6.2 17.15V14.3H41.85V17.15ZM6.2 25.1V22.5H41.85V25.1ZM6.2 33.35V30.45H23.9V33.35ZM6.2 41.4V38.55H23.9V41.4ZM32.95 41.75 27.8 36.55 29.9 34.55 33 37.65 39.85 30.75 41.9 32.8ZM6.2 9.1V6.2H41.85V9.1Z"/></svg>
